img/artificium.svg

<svg width="42" height="42" viewBox="0 0 42 42" fill="none" xmlns="http://www.w3.org/2000/svg">
<g filter="url(#filter0_dd_462_1379)">
<path d="M23.8518 7.08959L28.3171 16.023C28.886 17.161 28.0587 18.5 26.7867 18.5H23.8518M23.8518 7.08959L22.5304 4.44613C21.8999 3.18462 20.1001 3.18462 19.4696 4.44613L13.6828 16.023C13.114 17.161 13.9413 18.5 15.2133 18.5H18.1482M23.8518 7.08959L21 9.9422M18.1482 18.5H23.8518M18.1482 18.5L15.2965 15.6474M23.8518 18.5L18.1482 12.7948M21 9.9422L28.272 17.2163M21 9.9422L18.1482 12.7948M13.728 17.2163L15.2965 15.6474M15.2965 15.6474L18.1482 12.7948" stroke="#B6F09C" stroke-width="1.5" stroke-linecap="round" stroke-linejoin="round"/>
</g>
<defs>
<filter id="filter0_dd_462_1379" x="-1" y="-1" width="44" height="44" filterUnits="userSpaceOnUse" color-interpolation-filters="sRGB">
<feFlood flood-opacity="0" result="BackgroundImageFix"/>
<feColorMatrix in="SourceAlpha" type="matrix" values="0 0 0 0 0 0 0 0 0 0 0 0 0 0 0 0 0 0 127 0" result="hardAlpha"/>
<feMorphology radius="4" operator="erode" in="SourceAlpha" result="effect1_dropShadow_462_1379"/>
<feOffset dy="4"/>
<feGaussianBlur stdDeviation="3"/>
<feColorMatrix type="matrix" values="0 0 0 0 0.713726 0 0 0 0 0.941176 0 0 0 0 0.611765 0 0 0 0.16 0"/>
<feBlend mode="normal" in2="BackgroundImageFix" result="effect1_dropShadow_462_1379"/>
<feColorMatrix in="SourceAlpha" type="matrix" values="0 0 0 0 0 0 0 0 0 0 0 0 0 0 0 0 0 0 127 0" result="hardAlpha"/>
<feMorphology radius="3" operator="erode" in="SourceAlpha" result="effect2_dropShadow_462_1379"/>
<feOffset dy="10"/>
<feGaussianBlur stdDeviation="7.5"/>
<feColorMatrix type="matrix" values="0 0 0 0 0.713726 0 0 0 0 0.941176 0 0 0 0 0.611765 0 0 0 0.16 0"/>
<feBlend mode="normal" in2="effect1_dropShadow_462_1379" result="effect2_dropShadow_462_1379"/>
<feBlend mode="normal" in="SourceGraphic" in2="effect2_dropShadow_462_1379" result="shape"/>
</filter>
</defs>
</svg>

<svg width="42" height="42" fill="none" xmlns="http://www.w3.org/2000/svg"><g filter="url(#a)"><path d="m23.852 7.09 4.465 8.933a1.712 1.712 0 0 1-1.53 2.477h-2.935m0-11.41L22.53 4.446c-.63-1.261-2.43-1.261-3.06 0l-5.787 11.577a1.712 1.712 0 0 0 1.53 2.477h2.935m5.704-11.41L21 9.942M18.148 18.5h5.704m-5.704 0-2.851-2.853m8.555 2.853-5.704-5.705M21 9.942l7.272 7.274M21 9.942l-2.852 2.853m-4.42 4.421 1.569-1.569m0 0 2.851-2.852" stroke="#B6F09C" stroke-width="1.5" stroke-linecap="round" stroke-linejoin="round"/></g><defs><filter id="a" x="-1" y="-1" width="44" height="44" filterUnits="userSpaceOnUse" color-interpolation-filters="sRGB"><feFlood flood-opacity="0" result="BackgroundImageFix"/><feColorMatrix in="SourceAlpha" values="0 0 0 0 0 0 0 0 0 0 0 0 0 0 0 0 0 0 127 0" result="hardAlpha"/><feMorphology radius="4" in="SourceAlpha" result="effect1_dropShadow_462_1379"/><feOffset dy="4"/><feGaussianBlur stdDeviation="3"/><feColorMatrix values="0 0 0 0 0.713726 0 0 0 0 0.941176 0 0 0 0 0.611765 0 0 0 0.16 0"/><feBlend in2="BackgroundImageFix" result="effect1_dropShadow_462_1379"/><feColorMatrix in="SourceAlpha" values="0 0 0 0 0 0 0 0 0 0 0 0 0 0 0 0 0 0 127 0" result="hardAlpha"/><feMorphology radius="3" in="SourceAlpha" result="effect2_dropShadow_462_1379"/><feOffset dy="10"/><feGaussianBlur stdDeviation="7.5"/><feColorMatrix values="0 0 0 0 0.713726 0 0 0 0 0.941176 0 0 0 0 0.611765 0 0 0 0.16 0"/><feBlend in2="effect1_dropShadow_462_1379" result="effect2_dropShadow_462_1379"/><feBlend in="SourceGraphic" in2="effect2_dropShadow_462_1379" result="shape"/></filter></defs></svg>
